X:22001
T:Vandals of Hammerwich
R:Polka
C:Trad. Morris Dance
O:England
M:4/4
L:1/8
Q:1/4=200
K:G
"G"D2 G2 B2 G2|D2 G2 B2 G2|d4 d3 d|d6 d2|"G"D2 G2 B2 G2|D2 G2 B2 G2|"D"d2 c2 A2 F2|"G"G6 Bc|:
"G"d4 d3 d|d6 d2|"Em"e2 g2 f2 e2|"G"e2 d2 d3 e|"C"d2 c2 c3 c|"G"c2 B2 B3 B|"D"d2 c2 A2 F2|"G"G6 Bc:|

